X: 1042
M: 2/4
L: 1/16
K: D
|:\
d4 f4 | e2f2 g4 | fdfa bagf | agfe dcBA |\
d4 f4 | e2f2 g4 | fafd egec | d2f2 d4 :|
|:\
c4 f4 | d2c2 B4 | B4 e4 | c2B2 A4 |\
d4 f4 | e2f2 g4 | fafd egec | d2f2 d4 H:|
|:[K:G]\
|:\
(A4 c2)z2 | B2c2 d4 | (A4 c2)z2 | B2c2 d4 |

